coreui/free/cil-wifi-signal-3.svg

<svg viewBox="0 0 512 512" xmlns="http://www.w3.org/2000/svg"><path d="M503.78 124.25v-.001c-148.77-104.17-346.81-104.17-495.57 0l-.22.14v27.43l33 47.12v0L237.76 479.975h36.44L470.98 198.93v0l33-47.13v-27.45ZM189.86 355.78l125.62-192.13v-.001c14.29 2.68 28.39 6.35 42.18 10.98L213.95 390.179Zm-19.77-28.24l-26.46-37.78 89.523-130.85q11.35-.8 22.83-.8 12.2 0 24.27.91Zm-46.07-65.786l-38.25-54.63h-.001c32.04-20.21 67.45-34.52 104.53-42.26Zm109.63 156.574l154.47-231.7v0c13.13 5.97 25.85 12.82 38.07 20.5L255.97 450.2Zm210.91-237.43v0c-115.11-73.05-262.05-73.05-377.16-.001l-27.57-39.37 0-.001c131.69-84.56 300.59-84.56 432.288 0Z"/></svg>

<svg xmlns="http://www.w3.org/2000/svg" viewBox="0 0 512 512">
  <path fill="var(--ci-primary-color, currentColor)" d="M503.785,124.254a432.019,432.019,0,0,0-495.57,0L8,124.4v27.438L41,198.964h0L237.778,480h36.444L471.005,198.964h0l33-47.122V124.4ZM189.87,355.789,315.491,163.662a317.213,317.213,0,0,1,42.184,10.981L213.968,390.2ZM170.1,327.553l-26.453-37.778L233.17,158.932q11.354-.8,22.83-.8,12.2,0,24.276.918Zm-46.064-65.786L85.788,207.145a317.977,317.977,0,0,1,104.534-42.258ZM233.669,418.341l154.47-231.7a320.459,320.459,0,0,1,38.073,20.509L256,450.232Zm210.91-237.427a351.947,351.947,0,0,0-377.158,0L39.856,141.547a400.039,400.039,0,0,1,432.288,0Z" class="ci-primary"/>
</svg>
